cssgg/git-branch.svg

<svg
  width="24"
  height="24"
  viewBox="0 0 24 24"
  fill="none"
  xmlns="http://www.w3.org/2000/svg"
>
  <path
    d="M9 3C7.89543 3 7 3.89543 7 5C7 5.74028 7.4022 6.38663 8 6.73244V17.2676C7.4022 17.6134 7 18.2597 7 19C7 20.1046 7.89543 21 9 21C9.74028 21 10.3866 20.5978 10.7324 20H11.9585C14.1676 20 15.9585 18.2091 15.9585 16V14.7324C16.5563 14.3866 16.9585 13.7403 16.9585 13C16.9585 11.8954 16.0631 11 14.9585 11C13.8539 11 12.9585 11.8954 12.9585 13C12.9585 13.7403 13.3607 14.3866 13.9585 14.7324V16C13.9585 17.1046 13.0631 18 11.9585 18H10.7324C10.5568 17.6964 10.3036 17.4432 10 17.2676V6.73244C10.5978 6.38663 11 5.74028 11 5C11 3.89543 10.1046 3 9 3Z"
    fill="currentColor"
  />
</svg>

<svg viewBox="0 0 24 24" xmlns="http://www.w3.org/2000/svg"><path d="M9 3c-1.11 0-2 .89-2 2 0 .74.4 1.38 1 1.73v10.53c-.6.34-1 .99-1 1.73 0 1.1.89 2 2 2 .74 0 1.38-.41 1.73-1h1.22c2.2 0 4-1.8 4-4v-1.27c.59-.35 1-1 1-1.74 0-1.11-.9-2-2-2 -1.11 0-2 .89-2 2 0 .74.4 1.38 1 1.73v1.26c0 1.1-.9 2-2 2h-1.23c-.18-.31-.43-.56-.74-.74V6.69c.59-.35 1-1 1-1.74 0-1.11-.9-2-2-2Z"/></svg>
